icon-svg/dartboard.svg

<svg xmlns="http://www.w3.org/2000/svg" fill="#44739e" viewBox="0 0 24 24"><path d="M21.88 10.465a9.962 9.962 0 1 0-.007 3.129 9.99 9.99 0 0 0 .007-3.129M20.639 13.4l.58.093a9.29 9.29 0 0 1-.912 2.775L19.784 16a8.8 8.8 0 0 1-1.616 2.21l.414.417a9.31 9.31 0 0 1-2.367 1.712l-.266-.525a8.74 8.74 0 0 1-2.606.836l-.437-2.812a5.93 5.93 0 0 0 1.759-.565l-.223-.44a5.39 5.39 0 0 1-1.612.516l.076.489a5.92 5.92 0 0 1-1.846 0l-.455 2.811a8.7 8.7 0 0 0 2.738.006l.09.581a9.32 9.32 0 0 1-2.922-.007l.094-.58a8.72 8.72 0 0 1-2.6-.856l-.269.524a9.37 9.37 0 0 1-2.357-1.725l.417-.414a8.67 8.67 0 0 1-1.6-2.219l-.526.266a9.34 9.34 0 0 1-.892-2.782l.581-.09a8.75 8.75 0 0 0 .837 2.606l2.54-1.284a5.96 5.96 0 0 1-.565-1.759l-2.811.436a8.75 8.75 0 0 1 .005-2.737l-.58-.093a9.27 9.27 0 0 1 .913-2.776l.523.269A8.82 8.82 0 0 1 5.832 5.8l-.414-.417a9.3 9.3 0 0 1 2.367-1.716l.266.524a8.77 8.77 0 0 1 2.607-.836l-.091-.581a9.3 9.3 0 0 1 2.922.006l-.094.581a8.74 8.74 0 0 1 2.6.855l.269-.523a9.4 9.4 0 0 1 2.358 1.725l-.417.414a8.72 8.72 0 0 1 1.6 2.219l.525-.266a9.35 9.35 0 0 1 .893 2.782l-.582.091a8.69 8.69 0 0 1-.002 2.742m-8.7-1.794a.4.4 0 1 0 .454.333.4.4 0 0 0-.454-.333m.506 1.275 2 3.947a5.4 5.4 0 0 0 1.371-.992L12.7 12.7a.95.95 0 0 1-.255.181m-.602.094-.7 4.366a5.39 5.39 0 0 0 1.692 0l-.679-4.368a1.02 1.02 0 0 1-.313.002m1.132-1.127 4.37-.678a5.4 5.4 0 0 0-.517-1.611l-3.947 2a.97.97 0 0 1 .094.289m-.275-.542 3.137-3.119a5.46 5.46 0 0 0-1.366-1l-2.02 3.935a.95.95 0 0 1 .249.184m.177 1.145 3.934 2.019a5.43 5.43 0 0 1-1 1.366l.348.35a5.92 5.92 0 0 0 1.09-1.491l-.439-.225a5.44 5.44 0 0 0 .529-1.608l-4.367-.7a1 1 0 0 1-.095.289M11.17 6.656l.679 4.37a.94.94 0 0 1 .309 0l.7-4.367a5.39 5.39 0 0 0-1.688-.003m-.145 5.496-4.37.678a5.41 5.41 0 0 0 .518 1.612l3.947-2a.94.94 0 0 1-.095-.29m-2.861 3.661a5.4 5.4 0 0 0 1.366 1l2.021-3.935a.96.96 0 0 1-.25-.182zm1.366.998-.225.44a5.87 5.87 0 0 0 1.755.577l.078-.487a5.38 5.38 0 0 1-1.608-.53m6.306-8.624a5.45 5.45 0 0 1 .992 1.372l.44-.223a5.89 5.89 0 0 0-1.082-1.5L18.2 5.833A8.78 8.78 0 0 0 16 4.217l-1.3 2.532a5.97 5.97 0 0 1 1.491 1.09zm1.505 4.675.487.079a5.89 5.89 0 0 0 0-1.846l-.487.076a5.42 5.42 0 0 1 0 1.691M14.47 7.188l.225-.439a5.86 5.86 0 0 0-1.754-.576l-.079.487a5.37 5.37 0 0 1 1.608.528m-6.306 8.625a5.4 5.4 0 0 1-.991-1.371l-.441.223a5.91 5.91 0 0 0 1.082 1.5zm3.006-9.157-.076-.488a5.89 5.89 0 0 0-1.758.564l-1.285-2.54A8.73 8.73 0 0 0 5.832 5.8l2.007 2.014A5.94 5.94 0 0 0 6.75 9.305l.439.225a5.43 5.43 0 0 1 1-1.366l-.348-.35a5.87 5.87 0 0 1 1.5-1.081l.222.439a5.39 5.39 0 0 0-1.37.992l3.112 3.136a1 1 0 0 1 .25-.181l-2-3.948a5.44 5.44 0 0 1 1.615-.515m-4.51 4.482 4.367.705a.98.98 0 0 1 .1-.293L7.188 9.53a5.37 5.37 0 0 0-.528 1.608l-.487-.079a5.9 5.9 0 0 0 0 1.847l.487-.076a5.39 5.39 0 0 1 0-1.692m2.645 6.113a5.92 5.92 0 0 1-1.491-1.09L5.8 18.168a8.77 8.77 0 0 0 2.209 1.615zm7.963-7.915a5.86 5.86 0 0 1 .564 1.759l2.813-.437a8.72 8.72 0 0 0-.836-2.606Zm-.017 5.364 2.532 1.3a8.73 8.73 0 0 0 .856-2.6l-2.811-.454a5.89 5.89 0 0 1-.577 1.754m-2.586 2.568 1.284 2.541a8.74 8.74 0 0 0 2.219-1.6l-2.007-2.019a5.86 5.86 0 0 1-1.496 1.078M12.941 6.173l.459-2.812a8.78 8.78 0 0 0-2.737-.006l.436 2.813a5.86 5.86 0 0 1 1.842.005M4.217 8.005a8.77 8.77 0 0 0-.856 2.6l2.812.454a5.84 5.84 0 0 1 .577-1.754Z"/></svg>

<?xml version="1.0" encoding="UTF-8"?>
<svg width="24px" fill="#44739e" height="24px" viewBox="0 0 24 24" version="1.1" xmlns="http://www.w3.org/2000/svg" xmlns:xlink="http://www.w3.org/1999/xlink">
            <path d="m 21.88,10.465 a 9.962,9.962 0 1 0 -0.007,3.129 9.991,9.991 0 0 0 0.007,-3.129 z m -1.241,2.935 0.58,0.093 a 9.285,9.285 0 0 1 -0.912,2.775 L 19.784,16 a 8.808,8.808 0 0 1 -1.616,2.21 l 0.414,0.417 a 9.308,9.308 0 0 1 -2.367,1.712 l -0.266,-0.525 a 8.735,8.735 0 0 1 -2.606,0.836 l -0.437,-2.812 a 5.925,5.925 0 0 0 1.759,-0.565 l -0.223,-0.44 a 5.387,5.387 0 0 1 -1.612,0.516 l 0.076,0.489 a 5.918,5.918 0 0 1 -1.846,0 l -0.455,2.811 a 8.7,8.7 0 0 0 2.738,0.006 l 0.09,0.581 a 9.323,9.323 0 0 1 -2.922,-0.007 l 0.094,-0.58 a 8.716,8.716 0 0 1 -2.6,-0.856 L 7.736,20.317 A 9.368,9.368 0 0 1 5.379,18.592 l 0.417,-0.414 a 8.674,8.674 0 0 1 -1.6,-2.219 L 3.67,16.225 A 9.339,9.339 0 0 1 2.778,13.443 l 0.581,-0.09 a 8.746,8.746 0 0 0 0.837,2.606 l 2.54,-1.284 A 5.963,5.963 0 0 1 6.171,12.916 L 3.36,13.352 A 8.75,8.75 0 0 1 3.365,10.615 L 2.785,10.522 A 9.274,9.274 0 0 1 3.698,7.746 L 4.221,8.015 A 8.822,8.822 0 0 1 5.832,5.8 L 5.418,5.383 A 9.3,9.3 0 0 1 7.785,3.667 L 8.051,4.191 A 8.77,8.77 0 0 1 10.658,3.355 L 10.567,2.774 a 9.293,9.293 0 0 1 2.922,0.006 l -0.094,0.581 a 8.743,8.743 0 0 1 2.6,0.855 l 0.269,-0.523 a 9.4,9.4 0 0 1 2.358,1.725 l -0.417,0.414 a 8.722,8.722 0 0 1 1.6,2.219 L 20.33,7.785 a 9.35,9.35 0 0 1 0.893,2.782 l -0.582,0.091 A 8.69,8.69 0 0 1 20.639,13.4 Z m -8.7,-1.794 a 0.4,0.4 0 1 0 0.454,0.333 0.4,0.4 0 0 0 -0.454,-0.333 z m 0.506,1.275 2,3.947 a 5.4,5.4 0 0 0 1.371,-0.992 L 12.7,12.7 a 0.945,0.945 0 0 1 -0.255,0.181 z m -0.602,0.094 -0.7,4.366 a 5.392,5.392 0 0 0 1.692,0 l -0.679,-4.368 a 1.025,1.025 0 0 1 -0.313,0.002 z m 1.132,-1.127 4.37,-0.678 A 5.4,5.4 0 0 0 16.828,9.559 l -3.947,2 a 0.967,0.967 0 0 1 0.094,0.289 z M 12.7,11.306 15.837,8.187 a 5.457,5.457 0 0 0 -1.366,-1 l -2.02,3.935 a 0.954,0.954 0 0 1 0.249,0.184 z m 0.177,1.145 3.934,2.019 a 5.428,5.428 0 0 1 -1,1.366 l 0.348,0.35 a 5.921,5.921 0 0 0 1.09,-1.491 L 16.81,14.47 a 5.438,5.438 0 0 0 0.529,-1.608 l -4.367,-0.7 a 1.006,1.006 0 0 1 -0.095,0.289 z m -1.707,-5.795 0.679,4.37 a 0.942,0.942 0 0 1 0.309,0 l 0.7,-4.367 A 5.391,5.391 0 0 0 11.17,6.656 Z m -0.145,5.496 -4.37,0.678 a 5.409,5.409 0 0 0 0.518,1.612 l 3.947,-2 a 0.942,0.942 0 0 1 -0.095,-0.29 z m -2.861,3.661 a 5.408,5.408 0 0 0 1.366,1 l 2.021,-3.935 a 0.955,0.955 0 0 1 -0.25,-0.182 z m 1.366,0.998 -0.225,0.44 a 5.869,5.869 0 0 0 1.755,0.577 l 0.078,-0.487 A 5.383,5.383 0 0 1 9.53,16.811 Z m 6.306,-8.624 a 5.449,5.449 0 0 1 0.992,1.372 l 0.44,-0.223 a 5.892,5.892 0 0 0 -1.082,-1.5 L 18.2,5.833 A 8.783,8.783 0 0 0 16,4.217 l -1.3,2.532 a 5.97,5.97 0 0 1 1.491,1.09 z m 1.505,4.675 0.487,0.079 a 5.888,5.888 0 0 0 0,-1.846 l -0.487,0.076 a 5.415,5.415 0 0 1 0,1.691 z M 14.47,7.188 14.695,6.749 A 5.861,5.861 0 0 0 12.941,6.173 L 12.862,6.66 A 5.37,5.37 0 0 1 14.47,7.188 Z M 8.164,15.813 A 5.4,5.4 0 0 1 7.173,14.442 l -0.441,0.223 a 5.911,5.911 0 0 0 1.082,1.5 z M 11.17,6.656 11.094,6.168 A 5.888,5.888 0 0 0 9.336,6.732 L 8.051,4.192 A 8.729,8.729 0 0 0 5.832,5.8 L 7.839,7.814 A 5.942,5.942 0 0 0 6.75,9.305 L 7.189,9.53 a 5.432,5.432 0 0 1 1,-1.366 L 7.841,7.814 a 5.866,5.866 0 0 1 1.5,-1.081 l 0.222,0.439 a 5.389,5.389 0 0 0 -1.37,0.992 l 3.112,3.136 a 1,1 0 0 1 0.25,-0.181 l -2,-3.948 A 5.438,5.438 0 0 1 11.17,6.656 Z m -4.51,4.482 4.367,0.705 a 0.979,0.979 0 0 1 0.1,-0.293 L 7.188,9.53 A 5.37,5.37 0 0 0 6.66,11.138 L 6.173,11.059 a 5.894,5.894 0 0 0 0,1.847 v 0 L 6.66,12.83 a 5.391,5.391 0 0 1 0,-1.692 z m 2.645,6.113 A 5.921,5.921 0 0 1 7.814,16.161 L 5.8,18.168 a 8.774,8.774 0 0 0 2.209,1.615 z m 7.963,-7.915 a 5.857,5.857 0 0 1 0.564,1.759 l 2.813,-0.437 v 0 A 8.716,8.716 0 0 0 19.809,8.052 Z M 17.251,14.7 19.783,16 a 8.731,8.731 0 0 0 0.856,-2.6 L 17.828,12.946 A 5.887,5.887 0 0 1 17.251,14.7 Z m -2.586,2.568 1.284,2.541 a 8.739,8.739 0 0 0 2.219,-1.6 L 16.161,16.19 a 5.863,5.863 0 0 1 -1.496,1.078 z M 12.941,6.173 13.4,3.361 A 8.78,8.78 0 0 0 10.663,3.355 l 0.436,2.813 a 5.864,5.864 0 0 1 1.842,0.005 z M 4.217,8.005 a 8.773,8.773 0 0 0 -0.856,2.6 l 2.812,0.454 A 5.835,5.835 0 0 1 6.75,9.305 Z"/>

</svg>
